!!!COM: Honegger, Arthur
!!!OTL: Symphony No. 4 "Deliciae basiliensis" (Pleasures of Basel) for Chamber Orchestra
!!!OMV: Movement 3: Allegro
!!!example: 599
!!!work: Hon-38
!!!OMD-full: Allegro
!!!OMD: [Allegro] [quarter] = [quarter-dot] = 126
**kern	**dynam	**kern	**dynam	**kern	**dynam	**kern	**dynam	**kern	**dynam	**kern	**kern	**dynam	**kern	**dynam	**kern	**dynam	**kern	**dynam	**kern	**dynam	**kern	**dynam	**kern	**dynam
*grp:A	*	*grp:A	*	*grp:A	*	*grp:A	*	*grp:A	*	*grp:B	*grp:B	*grp:B	*grp:A	*	*grp:B	*grp:B	*grp:B	*grp:B	*grp:B	*grp:B	*grp:B	*grp:B	*grp:B	*grp:B
*part12	*	*part11	*	*part10	*	*part9	*	*part8	*	*part7	*part7	*part7	*part6	*	*part5	*part5	*part4	*part4	*part3	*part3	*part2	*part2	*part1	*part1
*staff13	*	*staff12	*	*staff11	*	*staff10	*	*staff9	*	*staff8	*staff7	*	*staff6	*	*staff5	*	*staff4	*	*staff3	*	*staff2	*	*staff1	*
*I"Contrabass	*	*I"Violoncello	*	*I"Viola	*	*I"Violin II	*	*I"Violin I	*	*I"Piano	*	*	*I"Bassoon	*	*I"Clarinet in C II	*	*I"Clarinet in C I	*	*I"Oboe	*	*I"Flute II	*	*I"Flute I	*
*I'Cb.	*	*I'Vc.	*	*I'Vla.	*	*I'Vln. II	*	*I'Vln. I	*	*I'Pno.	*	*	*I'Bsn.	*	*I'2.Cl.	*	*I'1.Cl.	*	*I'Ob.	*	*I'2.Fl.	*	*I'1.Fl.	*
*ICstr	*	*ICstr	*	*ICstr	*	*ICstr	*	*ICstr	*	*ICklav	*ICklav	*	*ICww	*	*ICww	*	*ICww	*	*ICww	*	*ICww	*	*ICww	*
*Icbass	*	*Icello	*	*Iviola	*	*Ivioln	*	*Ivioln	*	*Ipiano	*Ipiano	*	*Ifagot	*	*Iclars	*	*Iclars	*	*Ioboe	*	*Iflt	*	*Iflt	*
*clefF4	*	*clefF4	*	*clefC3	*	*clefG2	*	*clefG2	*	*clefG2	*clefG2	*	*clefF4	*	*clefG2	*	*clefG2	*	*clefG2	*	*clefG2	*	*clefG2	*
*ITrd7c12	*	*	*	*	*	*	*	*	*	*	*	*	*	*	*	*	*	*	*	*	*	*	*	*
*k[]	*	*k[]	*	*k[]	*	*k[]	*	*k[]	*	*k[]	*k[]	*	*k[]	*	*k[]	*	*k[]	*	*k[]	*	*k[]	*	*k[]	*
*M3/4	*	*M3/4	*	*M3/4	*	*M3/4	*	*M3/4	*	*M9/8	*M9/8	*	*M3/4	*	*M9/8	*	*M9/8	*	*M9/8	*	*M9/8	*	*M9/8	*
*	*	*^	*	*	*	*	*	*	*	*	*	*	*	*	*	*	*	*	*	*	*	*	*	*
!	!	!LO:TX:b:i:t=sostenuto	!	!	!	!	!	!	!	!	!	!	!	!	!	!	!	!	!	!	!	!	!	!	!
!	!LO:DY:ed=brack	!LO:TX:a:t=[non div.]	!	!LO:DY:ed=brack	!	!LO:DY:ed=brack	!	!LO:DY:ed=brack	!	!LO:DY:ed=brack	!	!	!	!	!	!	!	!	!	!	!	!	!	!	!
*	*	*	*	*	*	*	*	*	*	*	*Xtuplet	*Xtuplet	*	*	*	*Xtuplet	*	*Xtuplet	*	*Xtuplet	*	*Xtuplet	*	*Xtuplet	*
4EE 4BB	4ryy	2.E	4EEn 4BBn	4ryy	8B 8d#X	4ryy	8gn 8ee	4ryy	8bn 8gg	4ryy	12ryy	12ryy	4ryy	2.r	.	12ryy	4ryy	12ryy	4ryy	12ryy	4ryy	12ryy	4ryy	12ryy	4ryy
.	.	.	.	.	.	.	.	.	.	.	12ryy	12ryy	.	.	.	12ryy	.	12ryy	.	12ryy	.	12ryy	.	12ryy	.
.	.	.	.	.	8r	.	8r	.	8r	.	.	.	.	.	.	.	.	.	.	.	.	.	.	.	.
.	.	.	.	.	.	.	.	.	.	.	12ryy	12ryy	.	.	.	12ryy	.	12ryy	.	12ryy	.	12ryy	.	12ryy	.
4r	.	.	2ryy	.	4r	.	4r	.	4r	.	6ryy	6ryy	.	.	.	6ryy	.	6ryy	.	6ryy	.	6ryy	.	6ryy	.
.	.	.	.	.	.	.	.	.	.	.	12ryy	12ryy	.	.	.	12ryy	.	12ryy	.	12ryy	.	12ryy	.	12ryy	.
4r	.	.	.	.	4r	.	4r	.	4r	.	6ryy	6ryy	.	.	.	6ryy	.	6ryy	.	6ryy	.	6ryy	.	6ryy	.
.	.	.	.	.	.	.	.	.	.	.	12ryy	12ryy	.	.	.	12ryy	.	12ryy	.	12ryy	.	12ryy	.	12ryy	.
*	*	*v	*v	*	*	*	*	*	*	*	*	*	*	*	*	*	*	*	*	*	*	*	*	*	*
=96	=96	=96	=96	=96	=96	=96	=96	=96	=96	=96	=96	=96	=96	=96	=96	=96	=96	=96	=96	=96	=96	=96	=96	=96
!	!	!	!	!	!	!	!	!	!	!	!	!	!	!	!	!	!	!	!	!	!	!	!LO:TX:t=P:problem:cross-bar beaming to be implemented 	!
4.r	.	(2c	.	2.r	.	2.r	.	2.r	.	12ryy	12ryy	.	2.r	.	12ryy	.	12ryy	.	12ryy	.	12ryy	.	12ryy	.
.	.	.	.	.	.	.	.	.	.	12ryy	12ryy	.	.	.	12ryy	.	12ryy	.	12ryy	.	12ryy	.	12ryy	.
.	.	.	.	.	.	.	.	.	.	12ryy	12ryy	.	.	.	12ryy	.	12ryy	.	12ryy	.	12ryy	.	12ryy	.
.	.	.	.	.	.	.	.	.	.	12ryy	12ryy	.	.	.	12ryy	.	12ryy	.	12ryy	.	12ryy	.	12ryy	.
.	.	.	.	.	.	.	.	.	.	12ryy	12ryy	.	.	.	12ryy	.	12ryy	.	12ryy	.	12ryy	.	12ryy	.
8r	.	.	.	.	.	.	.	.	.	.	.	.	.	.	.	.	.	.	.	.	.	.	.	.
.	.	.	.	.	.	.	.	.	.	12ryy	12ryy	.	.	.	12ryy	.	12ryy	.	12ryy	.	12ryy	.	12ryy	.
4r	.	4Fn)	.	.	.	.	.	.	.	12ryy	12ryy	.	.	.	12ryy	.	12ryy	.	12ryy	.	12ryy	.	12ryy	.
.	.	.	.	.	.	.	.	.	.	12ryy	12ryy	.	.	.	12ryy	.	12ryy	.	12ryy	.	12ryy	.	12ryy	.
.	.	.	.	.	.	.	.	.	.	12ryy	12ryy	.	.	.	12ryy	.	12ryy	.	12ryy	.	12ryy	.	12ryy	.
=97	=97	=97	=97	=97	=97	=97	=97	=97	=97	=97	=97	=97	=97	=97	=97	=97	=97	=97	=97	=97	=97	=97	=97	=97
2.r	.	(4.E	.	2.r	.	2.r	.	2.r	.	12ryy	12ryy	.	2.r	.	12ryy	.	12ryy	.	12ryy	.	12ryy	.	12ryy	.
.	.	.	.	.	.	.	.	.	.	6ryy	6ryy	.	.	.	6ryy	.	12ryy	.	6ryy	.	6ryy	.	6ryy	.
.	.	.	.	.	.	.	.	.	.	.	.	.	.	.	.	.	12ryy	.	.	.	.	.	.	.
.	.	.	.	.	.	.	.	.	.	12ryy	12ryy	.	.	.	12ryy	.	12ryy	.	12ryy	.	12ryy	.	12ryy	.
.	.	.	.	.	.	.	.	.	.	12ryy	12ryy	.	.	.	12ryy	.	12ryy	.	12ryy	.	12ryy	.	12ryy	.
.	.	8F#X	.	.	.	.	.	.	.	.	.	.	.	.	.	.	.	.	.	.	.	.	.	.
.	.	.	.	.	.	.	.	.	.	12ryy	12ryy	.	.	.	12ryy	.	12ryy	.	12ryy	.	12ryy	.	12ryy	.
.	.	4G)	.	.	.	.	.	.	.	6ryy	6ryy	.	.	.	6ryy	.	6ryy	.	6ryy	.	6ryy	.	6ryy	.
.	.	.	.	.	.	.	.	.	.	12ryy	12ryy	.	.	.	12ryy	.	12ryy	.	12ryy	.	12ryy	.	12ryy	.
=98	=98	=98	=98	=98	=98	=98	=98	=98	=98	=98	=98	=98	=98	=98	=98	=98	=98	=98	=98	=98	=98	=98	=98	=98
!LO:TX:a:t=pizz.	!	!	!	!	!	!	!	!	!	!	!	!	!	!LO:DY:ed=brack	!	!	!	!	!	!	!	!	!	!
4EE-X	.	(4A-X	.	2.r	.	2.r	.	2.r	.	12ryy	12ryy	.	2EE-X	4ryy	12ryy	.	12ryy	.	12ryy	.	12ryy	.	12ryy	.
.	.	.	.	.	.	.	.	.	.	6ryy	6ryy	.	.	.	6ryy	.	6ryy	.	6ryy	.	6ryy	.	6ryy	.
4r	.	2Fn)	.	.	.	.	.	.	.	12ryy	12ryy	.	.	.	12ryy	.	12ryy	.	12ryy	.	12ryy	.	12ryy	.
.	.	.	.	.	.	.	.	.	.	12ryy	12ryy	.	.	.	12ryy	.	12ryy	.	12ryy	.	12ryy	.	12ryy	.
.	.	.	.	.	.	.	.	.	.	12ryy	12ryy	.	.	.	12ryy	.	12ryy	.	12ryy	.	12ryy	.	12ryy	.
4r	.	.	.	.	.	.	.	.	.	12ryy	12ryy	.	4r	.	12ryy	.	12ryy	.	12ryy	.	12ryy	.	12ryy	.
.	.	.	.	.	.	.	.	.	.	12ryy	12ryy	.	.	.	12ryy	.	12ryy	.	12ryy	.	12ryy	.	12ryy	.
.	.	.	.	.	.	.	.	.	.	12ryy	12ryy	.	.	.	12ryy	.	12ryy	.	12ryy	.	12ryy	.	12ryy	.
=99	=99	=99	=99	=99	=99	=99	=99	=99	=99	=99	=99	=99	=99	=99	=99	=99	=99	=99	=99	=99	=99	=99	=99	=99
2.r	.	4r	.	2.r	.	2.r	.	2.r	.	12ryy	12ryy	.	2.r	.	12ryy	.	12ryy	.	12ryy	.	12ryy	.	12ryy	.
.	.	.	.	.	.	.	.	.	.	12ryy	12ryy	.	.	.	12ryy	.	12ryy	.	12ryy	.	12ryy	.	12ryy	.
.	.	.	.	.	.	.	.	.	.	12ryy	12ryy	.	.	.	12ryy	.	12ryy	.	12ryy	.	12ryy	.	12ryy	.
.	.	(4E	.	.	.	.	.	.	.	6ryy	6ryy	.	.	.	6ryy	.	6ryy	.	6ryy	.	6ryy	.	6ryy	.
.	.	.	.	.	.	.	.	.	.	12ryy	12ryy	.	.	.	12ryy	.	12ryy	.	12ryy	.	12ryy	.	12ryy	.
.	.	4G)	.	.	.	.	.	.	.	6ryy	6ryy	.	.	.	6ryy	.	6ryy	.	6ryy	.	6ryy	.	6ryy	.
.	.	.	.	.	.	.	.	.	.	12ryy	12ryy	.	.	.	12ryy	.	12ryy	.	12ryy	.	12ryy	.	12ryy	.
=100	=100	=100	=100	=100	=100	=100	=100	=100	=100	=100	=100	=100	=100	=100	=100	=100	=100	=100	=100	=100	=100	=100	=100	=100
!LO:TX:a:t=div.	!	!	!	!	!	!	!	!	!	!	!	!	!	!	!	!	!	!	!	!	!	!	!	!
!LO:TX:a:t=arco	!	!	!	!	!	!	!	!	!	!	!	!	!	!	!	!	!	!	!	!	!	!	!	!
2.CC 2.C	.	(2An	.	2.r	.	2.r	.	2.r	.	12ryy	12ryy	.	2.Cn	.	12ryy	.	12ryy	.	12ryy	.	12ryy	.	12ryy	.
.	.	.	.	.	.	.	.	.	.	12ryy	12ryy	.	.	.	12ryy	.	12ryy	.	12ryy	.	12ryy	.	12ryy	.
.	.	.	.	.	.	.	.	.	.	12ryy	12ryy	.	.	.	12ryy	.	12ryy	.	12ryy	.	12ryy	.	12ryy	.
.	.	.	.	.	.	.	.	.	.	12ryy	12ryy	.	.	.	12ryy	.	12ryy	.	12ryy	.	12ryy	.	12ryy	.
.	.	.	.	.	.	.	.	.	.	12ryy	12ryy	.	.	.	12ryy	.	12ryy	.	12ryy	.	12ryy	.	12ryy	.
.	.	.	.	.	.	.	.	.	.	12ryy	12ryy	.	.	.	12ryy	.	12ryy	.	12ryy	.	12ryy	.	12ryy	.
.	.	4E)	.	.	.	.	.	.	.	12ryy	12ryy	.	.	.	12ryy	.	12ryy	.	12ryy	.	12ryy	.	12ryy	.
.	.	.	.	.	.	.	.	.	.	12ryy	12ryy	.	.	.	12ryy	.	12ryy	.	12ryy	.	12ryy	.	12ryy	.
.	.	.	.	.	.	.	.	.	.	12ryy	12ryy	.	.	.	12ryy	.	12ryy	.	12ryy	.	12ryy	.	12ryy	.
=101	=101	=101	=101	=101	=101	=101	=101	=101	=101	=101	=101	=101	=101	=101	=101	=101	=101	=101	=101	=101	=101	=101	=101	=101
2.BBB-X 2.BB-X	.	(4D-X	.	2.r	.	2.r	.	2.r	.	12ryy	12ryy	.	2.BB-X	.	12ryy	.	12ryy	.	12ryy	.	12ryy	.	12ryy	.
.	.	.	.	.	.	.	.	.	.	6ryy	6ryy	.	.	.	6ryy	.	6ryy	.	6ryy	.	6ryy	.	6ryy	.
.	.	4F	.	.	.	.	.	.	.	12ryy	12ryy	.	.	.	12ryy	.	12ryy	.	12ryy	.	12ryy	.	12ryy	.
.	.	.	.	.	.	.	.	.	.	12ryy	12ryy	.	.	.	12ryy	.	12ryy	.	12ryy	.	12ryy	.	12ryy	.
.	.	.	.	.	.	.	.	.	.	12ryy	12ryy	.	.	.	12ryy	.	12ryy	.	12ryy	.	12ryy	.	12ryy	.
.	.	4A-X)	.	.	.	.	.	.	.	6ryy	6ryy	.	.	.	6ryy	.	6ryy	.	6ryy	.	6ryy	.	6ryy	.
.	.	.	.	.	.	.	.	.	.	12ryy	12ryy	.	.	.	12ryy	.	12ryy	.	12ryy	.	12ryy	.	12ryy	.
=102	=102	=102	=102	=102	=102	=102	=102	=102	=102	=102	=102	=102	=102	=102	=102	=102	=102	=102	=102	=102	=102	=102	=102	=102
2.AAA 2.AA	.	(2E-X	.	2.r	.	2.r	.	2.r	.	12ryy	12ryy	.	2.AAn	.	12ryy	.	12ryy	.	12ryy	.	12ryy	.	12ryy	.
.	.	.	.	.	.	.	.	.	.	6ryy	6ryy	.	.	.	6ryy	.	6ryy	.	6ryy	.	6ryy	.	6ryy	.
.	.	.	.	.	.	.	.	.	.	12ryy	12ryy	.	.	.	12ryy	.	12ryy	.	12ryy	.	12ryy	.	12ryy	.
.	.	.	.	.	.	.	.	.	.	12ryy	12ryy	.	.	.	12ryy	.	12ryy	.	12ryy	.	12ryy	.	12ryy	.
.	.	.	.	.	.	.	.	.	.	12ryy	12ryy	.	.	.	12ryy	.	12ryy	.	12ryy	.	12ryy	.	12ryy	.
.	.	4G)	.	.	.	.	.	.	.	12ryy	12ryy	.	.	.	12ryy	.	12ryy	.	12ryy	.	12ryy	.	12ryy	.
.	.	.	.	.	.	.	.	.	.	12ryy	12ryy	.	.	.	12ryy	.	12ryy	.	12ryy	.	12ryy	.	12ryy	.
.	.	.	.	.	.	.	.	.	.	12ryy	12ryy	.	.	.	12ryy	.	12ryy	.	12ryy	.	12ryy	.	12ryy	.
=103	=103	=103	=103	=103	=103	=103	=103	=103	=103	=103	=103	=103	=103	=103	=103	=103	=103	=103	=103	=103	=103	=103	=103	=103
2.GGG 2.GG	.	2.En	.	2.r	.	2.r	.	2.r	.	12ryy	12ryy	.	2.GG	.	12ryy	.	12ryy	.	12ryy	.	12ryy	.	12ryy	.
.	.	.	.	.	.	.	.	.	.	12ryy	12ryy	.	.	.	12ryy	.	12ryy	.	12ryy	.	12ryy	.	12ryy	.
.	.	.	.	.	.	.	.	.	.	12ryy	12ryy	.	.	.	12ryy	.	12ryy	.	12ryy	.	12ryy	.	12ryy	.
.	.	.	.	.	.	.	.	.	.	6ryy	6ryy	.	.	.	6ryy	.	6ryy	.	6ryy	.	6ryy	.	6ryy	.
.	.	.	.	.	.	.	.	.	.	12ryy	12ryy	.	.	.	12ryy	.	12ryy	.	12ryy	.	12ryy	.	12ryy	.
.	.	.	.	.	.	.	.	.	.	6ryy	6ryy	.	.	.	6ryy	.	6ryy	.	6ryy	.	6ryy	.	6ryy	.
.	.	.	.	.	.	.	.	.	.	12ryy	12ryy	.	.	.	12ryy	.	12ryy	.	12ryy	.	12ryy	.	12ryy	.
=104	=104	=104	=104	=104	=104	=104	=104	=104	=104	=104	=104	=104	=104	=104	=104	=104	=104	=104	=104	=104	=104	=104	=104	=104
2.FFF 2.FF	.	(2c	.	2.r	.	2.r	.	2.r	.	12ryy	12ryy	.	2.FF	.	12ryy	.	12ryy	.	12ryy	.	12ryy	.	12ryy	.
.	.	.	.	.	.	.	.	.	.	12ryy	12ryy	.	.	.	12ryy	.	12ryy	.	12ryy	.	12ryy	.	12ryy	.
.	.	.	.	.	.	.	.	.	.	12ryy	12ryy	.	.	.	12ryy	.	12ryy	.	12ryy	.	12ryy	.	12ryy	.
.	.	.	.	.	.	.	.	.	.	12ryy	12ryy	.	.	.	12ryy	.	12ryy	.	12ryy	.	12ryy	.	12ryy	.
.	.	.	.	.	.	.	.	.	.	12ryy	12ryy	.	.	.	12ryy	.	12ryy	.	12ryy	.	12ryy	.	12ryy	.
.	.	.	.	.	.	.	.	.	.	12ryy	12ryy	.	.	.	12ryy	.	12ryy	.	12ryy	.	12ryy	.	12ryy	.
.	.	4F)	.	.	.	.	.	.	.	12ryy	12ryy	.	.	.	12ryy	.	12ryy	.	12ryy	.	12ryy	.	12ryy	.
.	.	.	.	.	.	.	.	.	.	12ryy	12ryy	.	.	.	12ryy	.	12ryy	.	12ryy	.	12ryy	.	12ryy	.
.	.	.	.	.	.	.	.	.	.	12ryy	12ryy	.	.	.	12ryy	.	12ryy	.	12ryy	.	12ryy	.	12ryy	.
=105	=105	=105	=105	=105	=105	=105	=105	=105	=105	=105	=105	=105	=105	=105	=105	=105	=105	=105	=105	=105	=105	=105	=105	=105
!LO:TX:a:t=tutti	!	!	!	!	!	!	!	!	!	!	!	!	!	!	!	!	!	!	!	!	!	!	!	!
2.EE-X	.	(4.G	.	2.r	.	2.r	.	2.r	.	12ryy	12ryy	.	2.EE-X	.	12ryy	.	12ryy	.	12ryy	.	12ryy	.	12ryy	.
.	.	.	.	.	.	.	.	.	.	6ryy	6ryy	.	.	.	6ryy	.	6ryy	.	6ryy	.	6ryy	.	6ryy	.
.	.	.	.	.	.	.	.	.	.	12ryy	12ryy	.	.	.	12ryy	.	12ryy	.	12ryy	.	12ryy	.	12ryy	.
.	.	.	.	.	.	.	.	.	.	12ryy	12ryy	.	.	.	12ryy	.	12ryy	.	12ryy	.	12ryy	.	12ryy	.
.	.	8A-X	.	.	.	.	.	.	.	.	.	.	.	.	.	.	.	.	.	.	.	.	.	.
.	.	.	.	.	.	.	.	.	.	12ryy	12ryy	.	.	.	12ryy	.	12ryy	.	12ryy	.	12ryy	.	12ryy	.
.	.	4B-X)	.	.	.	.	.	.	.	6ryy	6ryy	.	.	.	6ryy	.	6ryy	.	6ryy	.	6ryy	.	6ryy	.
.	.	.	.	.	.	.	.	.	.	12ryy	12ryy	.	.	.	12ryy	.	12ryy	.	12ryy	.	12ryy	.	12ryy	.
=106	=106	=106	=106	=106	=106	=106	=106	=106	=106	=106	=106	=106	=106	=106	=106	=106	=106	=106	=106	=106	=106	=106	=106	=106
[2.DD	.	(4c	.	2.r	.	2.r	.	2.r	.	12ryy	12ryy	.	[2.DD	.	12ryy	.	12ryy	.	12ryy	.	12ryy	.	12ryy	.
.	.	.	.	.	.	.	.	.	.	6ryy	6ryy	.	.	.	6ryy	.	6ryy	.	6ryy	.	6ryy	.	6ryy	.
.	.	4Bn	.	.	.	.	.	.	.	12ryy	12ryy	.	.	.	12ryy	.	12ryy	.	12ryy	.	12ryy	.	12ryy	.
.	.	.	.	.	.	.	.	.	.	12ryy	12ryy	.	.	.	12ryy	.	12ryy	.	12ryy	.	12ryy	.	12ryy	.
.	.	.	.	.	.	.	.	.	.	12ryy	12ryy	.	.	.	12ryy	.	12ryy	.	12ryy	.	12ryy	.	12ryy	.
.	.	4An)	.	.	.	.	.	.	.	12ryy	12ryy	.	.	.	12ryy	.	12ryy	.	12ryy	.	12ryy	.	12ryy	.
.	.	.	.	.	.	.	.	.	.	12ryy	12ryy	.	.	.	12ryy	.	12ryy	.	12ryy	.	12ryy	.	12ryy	.
.	.	.	.	.	.	.	.	.	.	12ryy	12ryy	.	.	.	12ryy	.	12ryy	.	12ryy	.	12ryy	.	12ryy	.
=107	=107	=107	=107	=107	=107	=107	=107	=107	=107	=107	=107	=107	=107	=107	=107	=107	=107	=107	=107	=107	=107	=107	=107	=107
4DD]	.	(4D	.	2.r	.	2.r	.	2.r	.	12ryy	12ryy	.	4DD]	.	12ryy	.	12ryy	.	12ryy	.	12ryy	.	12ryy	.
.	.	.	.	.	.	.	.	.	.	12ryy	12ryy	.	.	.	12ryy	.	12ryy	.	12ryy	.	12ryy	.	12ryy	.
.	.	.	.	.	.	.	.	.	.	12ryy	12ryy	.	.	.	12ryy	.	12ryy	.	12ryy	.	12ryy	.	12ryy	.
4r	.	4A	.	.	.	.	.	.	.	6ryy	6ryy	.	4r	.	6ryy	.	6ryy	.	6ryy	.	6ryy	.	6ryy	.
.	.	.	.	.	.	.	.	.	.	12ryy	12ryy	.	.	.	12ryy	.	12ryy	.	12ryy	.	12ryy	.	12ryy	.
4r	.	4G)	.	.	.	.	.	.	.	6ryy	6ryy	.	4r	.	6ryy	.	6ryy	.	6ryy	.	6ryy	.	6ryy	.
.	.	.	.	.	.	.	.	.	.	12ryy	12ryy	.	.	.	12ryy	.	12ryy	.	12ryy	.	12ryy	.	12ryy	.
=	=	=	=	=	=	=	=	=	=	=	=	=	=	=	=	=	=	=	=	=	=	=	=	=
*-	*-	*-	*-	*-	*-	*-	*-	*-	*-	*-	*-	*-	*-	*-	*-	*-	*-	*-	*-	*-	*-	*-	*-	*-
!!!system-decoration: [(s1,s2,s3,s4,s5,s6)][({(s7,s8)})][(s9,s10,s11,s12,s13)]
!!!CDT: 1892/03/10-1955/11/27
!!!CBL: Le Havre, France
!!!CDL: Paris, France
!!!CNT: Swiss, French
!!!AGN: Orchestral; Symphonic
!!!MCN: Sacher, Paul
!!!MDT: 1947/01/21
!!!MGN: Basel Chamber Orchestra
!!!MLC: Basel, Switzerland
!!!MPD: 1947
!!!MPN:
!!!ODT: 1946
!!!PDT: 1947
!!!excerpt-start-measure: 96
!!!excerpt-end-measure: 108
!!!excerpt-start-time: 2:17
!!!excerpt-end-time: 2:35
!!!excerpt-duration-sec: 18
!!!excerpt-time-signature: 9/8;3/4
!!!excerpt-tempo-beat: [dotted-quarter];[quarter]
!!!excerpt-tempo-rate: [126];[126]
!!!excerpt-meter-type: polymetric
!!!excerpt-beat-group: G3
!!!excerpt-beat-subgroup: G3;G2
!!!experiment: 1
!!!EEV: 2021/06/16
!!!ONB: Converted from MusicXML on 2020/07/28
